icons/fill-new-building-school.svg

<svg xmlns="http://www.w3.org/2000/svg" width="32px" height="32px" viewBox="0 0 32 32" version="1.1">
    <title>fill-new-building-school</title>
    <g id="fill-new-building-school" stroke-width="1" fill-rule="evenodd">
        <path d="M26,3 C26.5522847,3 27,3.44771525 27,4 L27,27 L29,27 C29.5522847,27 30,27.4477153 30,28 C30,28.5522847 29.5522847,29 29,29 L3,29 C2.44771525,29 2,28.5522847 2,28 C2,27.4477153 2.44771525,27 3,27 L5,27 L5,4 C5,3.44771525 5.44771525,3 6,3 L26,3 Z M16,20 C13.2385763,20 11,22.2385763 11,25 L11,27 L21,27 L21,25 C21,22.2385763 18.7614237,20 16,20 Z M21,13 L19,13 C18.4477153,13 18,13.4477153 18,14 L18,15 C18,15.5522847 18.4477153,16 19,16 L21,16 C21.5522847,16 22,15.5522847 22,15 L22,14 C22,13.4477153 21.5522847,13 21,13 Z M13,13 L11,13 C10.4477153,13 10,13.4477153 10,14 L10,15 C10,15.5522847 10.4477153,16 11,16 L13,16 C13.5522847,16 14,15.5522847 14,15 L14,14 C14,13.4477153 13.5522847,13 13,13 Z M13,7 L11,7 C10.4477153,7 10,7.44771525 10,8 L10,9 C10,9.55228475 10.4477153,10 11,10 L13,10 C13.5522847,10 14,9.55228475 14,9 L14,8 C14,7.44771525 13.5522847,7 13,7 Z M21,7 L19,7 C18.4477153,7 18,7.44771525 18,8 L18,9 C18,9.55228475 18.4477153,10 19,10 L21,10 C21.5522847,10 22,9.55228475 22,9 L22,8 C22,7.44771525 21.5522847,7 21,7 Z" id="&#24418;&#29366;" />
    </g>
</svg>

<svg xmlns="http://www.w3.org/2000/svg" viewBox="0 0 32 32"><path fill="currentColor" d="M26 3a1 1 0 0 1 1 1v23h2a1 1 0 0 1 0 2H3a1 1 0 0 1 0-2h2V4a1 1 0 0 1 1-1zM16 20a5 5 0 0 0-5 5v2h10v-2a5 5 0 0 0-5-5m5-7h-2a1 1 0 0 0-1 1v1a1 1 0 0 0 1 1h2a1 1 0 0 0 1-1v-1a1 1 0 0 0-1-1m-8 0h-2a1 1 0 0 0-1 1v1a1 1 0 0 0 1 1h2a1 1 0 0 0 1-1v-1a1 1 0 0 0-1-1m0-6h-2a1 1 0 0 0-1 1v1a1 1 0 0 0 1 1h2a1 1 0 0 0 1-1V8a1 1 0 0 0-1-1m8 0h-2a1 1 0 0 0-1 1v1a1 1 0 0 0 1 1h2a1 1 0 0 0 1-1V8a1 1 0 0 0-1-1"/></svg>
